public/images/logos/novo-nordisk.svg

<svg fill="none" height="130" viewBox="0 0 113 130" width="113" xmlns="http://www.w3.org/2000/svg"><path clip-rule="evenodd" d="m4.34792 23.9448c.36707-.0413.8156.4887 1.18374 1.5106.73414 1.9993 3.95742 10.0834 12.32504 13.0645 8.284 2.9799 15.7524.5701 20.9772-3.7977 1.9591-1.5519 2.6107-.6527.8568 2.2045-2.3262 3.7967-6.0816 5.96-10.4082 8.3285-.8558.4898-1.8766.8981.1227 1.8375 11.5507 5.3887 26.6103 9.1864 39.9963 9.1864 9.9576 0 19.5904-1.5519 24.6913-1.92 4.8968-.3671 14.2442-.0413 16.4882 10.7382 1.592 7.6345 1.469 29.9658 1.387 51.3177 0 1.511.123 2.41-1.591 2.41-5.551-.041-5.754.204-6.244 1.592-.817 2.286-1.021 3.429-1.632 5.797-.491 1.96-.858 2.654-2.164 2.654-1.4288 0-6.2442 0-6.8556 0-1.1023 0-1.6323-1.266-.7352-2.981 8.8568-15.922 8.1638-28.2925 2.9789-35.0691-1.6323 6.2879-2.3251 9.0626-3.1429 9.6761-10.6917 8.084-16.1195 25.271-16.5691 26.659-.4898 1.266-1.1435 1.756-2.816 1.756-1.1012 0-6.5301 0-7.5911 0-2.2035 0-2.0808-1.552-.7754-3.062 11.8765-12.698 14.8966-17.433 18.3653-28.2112 3.51-10.8197-4.6926-14.2493-10.9773-8.6141-16.3258-7.4314-20.6514 2.286-19.6718 7.7149 1.5095 8.6164 7.3055 23.2314 7.6726 30.1304.1227 1.756-1.3879 2.123-2.3273 2.123-.8156 0-7.224 0-7.224 0-2.2438 0-1.3456-2.163-1.1827-3.143 3.6728-17.761-3.8369-27.8854-11.3867-32.6214-4.4896 3.3079-10.4484 22.7004-11.1815 33.2744-.0825 1.265-.7765 2.409-1.8386 2.409-.9785 0-6.8146 0-8.4057 0-1.3477 0-1.592-1.511-.5712-3.348 4.3245-7.799 11.1-20.005 10.9784-32.9469 0-1.4291 0-5.9197-2.0829-8.3686-4.6112-5.5125-7.1405-12.2087-9.5492-16.494-1.6323-2.8996-3.7131-3.8792-5.3454-4.1648-1.756-.3269-3.06139.1629-4.53075-.531-1.46935-.6538-2.24476-2.1644-3.38829-3.4698-.97852-1.1023-1.713723-2.6954-.57124-4.1647 2.08185-2.5717 3.42849-4.0823 3.79557-5.1444.36813-1.0621.28667-1.5106.36813-2.45.04126-.8568 1.79517-3.0201 3.46869-4.9401.61144-.7342.08146-2.0406-1.06208-3.3069-1.14142-1.2641-4.44826-5.7959-4.44826-13.35 0-1.5107.28667-2.2036.61355-2.285zm30.64908 29.3945c-.6928-.0413-.9795.2856-1.5095.9785-7.4695 10.2485-9.0203 15.8011-8.3666 19.9659.6527 4.1637 4.2029 8.3285 9.5091 11.4724 5.3051 3.0614 8.5696 4.8174 12.1621 8.7357.4485.4486.9372.5713 1.1023-.2856 1.8364-12.0034 11.8754-13.7595 24.9758-13.513 18.4468.2856 21.9991 6.327 24.283 5.3887 2.2046-1.0621 3.7148-10.4103 4.1228-16.9848.448-6.6952.858-12.0839-7.3873-11.4312 1.9591 4.0019 2.3273 8.412-1.2652 10.9012-3.6316 2.5314-6.2445 1.3064-6.2445-1.0621 0-2.0819-.3258-5.4289-2.9377-8.4914-1.2662.1629-2.2849.2856-3.5501.4094.7743 3.5925 1.7137 10.2474-1.0208 12.9407-2.7346 2.6943-10.4897 2.9398-18.4881 2.3273-1.5096-.1217-3.3872-.7352-4.2039-2.6542-.4073-.897-1.0208-3.2254-1.1837-13.4315-1.3879-.2031-2.4892-.3671-3.876-.6929-1.4292 9.8391-4.7349 13.4717-8.2047 14.3286-3.4687.8579-7.4272.0412-6.692-3.511.6517-3.4285 2.3665-7.3066 2.6933-14.1244-2.1231-.7765-3.2232-1.225-3.9183-1.2663zm56.1571 4.6546c-1.591.1629-3.1016.367-4.5709.6114 1.6735 2.4098 2.6129 5.0629 2.6943 8.6141.4887.2041 2.7747-.7342 3.3047-2.3675.4909-1.6735.3671-3.5512-1.4281-6.858zm-49.0959-2.3686c-.4908 3.8792-1.3064 8.6564-2.1644 11.4724-.897 2.8171 1.5508 2.5727 2.6531 2.1231 1.4694-.6125 4.2039-3.1027 5.6331-11.9632-2.0417-.4887-4.0823-1.0198-6.1218-1.6323zm15.8339 3.3883c.2042 3.0625.2454 7.6758.7352 10.167.4486 2.1633 1.2663 2.285 2.0808 2.4077 2.98.4485 13.3871.8992 15.7123-1.4292 1.4291-1.4693 1.5529-6.5724.5321-10.4917-6.2847.367-12.7344.2041-19.0604-.6538zm-43.7506-15.5134c-.53.0815-.9785.3671-1.4693.7754-1.6725 1.5106-3.42749 3.8792-3.71311 4.6546-.36707.7754-.16291 2.6541-.89811 3.6326-.6527.9394-2.36642 3.2254-2.36642 3.2254-1.46935 1.8375-.77646 1.9613.81561 3.8792 1.4281 1.7962 4.77413-.5723 8.65213 2.4902 1.9592 1.5508 4.3266 7.3086 6.0404 9.5936 1.3064-8.2057 6.4476-14.8607 7.9582-17.3921 2.4902-3.9183.2443-2.9789-6.9787-7.3891-4.4884-2.6944-6.5301-3.7956-8.0407-3.4698zm1.1837 5.1846c.6125 0 1.0621.0814 1.1436.2856.2856.7352-3.1831 5.0216-4.9804 2.4098-1.3043-1.8798 2.0015-2.7356 3.8368-2.6954zm90.3588 26.0887c-.204.0402-.367.1629-.367.4073-.45 5.8795-1.756 12.9417-1.306 15.2288.408 2.4489 1.795 8.3284 2.081 10.9004.244 2 1.143 1.225 1.265.244.53-3.9595 1.388-23.882-1.102-26.496-.163-.2031-.408-.2845-.571-.2845zm-80.1547-73.73224c9.3863 0 16.9362 7.5922 16.9362 16.98274 0 9.3493-7.5499 17.0251-16.9362 17.0251-9.3049 0-16.93728-7.5944-16.93728-17.0251 0-9.30697 7.55098-16.98274 16.93728-16.98274zm.4887 3.99974c-6.2032 0-11.2629 4.9814-11.2629 11.228 0 6.2054 5.0597 11.227 11.2629 11.227 6.2445 0 11.2249-5.0216 11.2249-11.227 0-6.1651-4.9804-11.228-11.2249-11.228z" fill="#111" fill-rule="evenodd"/></svg>

<svg width="113" height="130" viewBox="0 0 113 130" fill="none" xmlns="http://www.w3.org/2000/svg">
<path fill-rule="evenodd" clip-rule="evenodd" d="M4.34792 23.9448C4.71499 23.9035 5.16352 24.4335 5.53166 25.4554C6.2658 27.4547 9.48908 35.5388 17.8567 38.5199C26.1407 41.4998 33.6091 39.09 38.8339 34.7222C40.793 33.1703 41.4446 34.0695 39.6907 36.9267C37.3645 40.7234 33.6091 42.8867 29.2825 45.2552C28.4267 45.745 27.4059 46.1533 29.4052 47.0927C40.9559 52.4814 56.0155 56.2791 69.4015 56.2791C79.3591 56.2791 88.9919 54.7272 94.0928 54.3591C98.9896 53.992 108.337 54.3178 110.581 65.0973C112.173 72.7318 112.05 95.0631 111.968 116.415C111.968 117.926 112.091 118.825 110.377 118.825C104.826 118.784 104.623 119.029 104.133 120.417C103.316 122.703 103.112 123.846 102.501 126.214C102.01 128.174 101.643 128.868 100.337 128.868C98.9082 128.868 94.0928 128.868 93.4814 128.868C92.3791 128.868 91.8491 127.602 92.7462 125.887C101.603 109.965 100.91 97.5945 95.7251 90.8179C94.0928 97.1058 93.4 99.8805 92.5822 100.494C81.8905 108.578 76.4627 125.765 76.0131 127.153C75.5233 128.419 74.8696 128.909 73.1971 128.909C72.0959 128.909 66.667 128.909 65.606 128.909C63.4025 128.909 63.5252 127.357 64.8306 125.847C76.7071 113.149 79.7272 108.414 83.1959 97.6358C86.7059 86.8161 78.5033 83.3865 72.2186 89.0217C55.8928 81.5903 51.5672 91.3077 52.5468 96.7366C54.0563 105.353 59.8523 119.968 60.2194 126.867C60.3421 128.623 58.8315 128.99 57.8921 128.99C57.0765 128.99 50.6681 128.99 50.6681 128.99C48.4243 128.99 49.3225 126.827 49.4854 125.847C53.1582 108.086 45.6485 97.9616 38.0987 93.2256C33.6091 96.5335 27.6503 115.926 26.9172 126.5C26.8347 127.765 26.1407 128.909 25.0786 128.909C24.1001 128.909 18.264 128.909 16.6729 128.909C15.3252 128.909 15.0809 127.398 16.1017 125.561C20.4262 117.762 27.2017 105.556 27.0801 92.6141C27.0801 91.185 27.0801 86.6944 24.9972 84.2455C20.386 78.733 17.8567 72.0368 15.448 67.7515C13.8157 64.8519 11.7349 63.8723 10.1026 63.5867C8.3466 63.2598 7.04121 63.7496 5.57185 63.0557C4.1025 62.4019 3.32709 60.8913 2.18356 59.5859C1.20504 58.4836 0.469837 56.8905 1.61232 55.4212C3.69417 52.8495 5.04081 51.3389 5.40789 50.2768C5.77602 49.2147 5.69456 48.7662 5.77602 47.8268C5.81728 46.97 7.57119 44.8067 9.24471 42.8867C9.85615 42.1525 9.32617 40.8461 8.18263 39.5798C7.04121 38.3157 3.73437 33.7839 3.73437 26.2298C3.73437 24.7191 4.02104 24.0262 4.34792 23.9448ZM34.997 53.3393C34.3042 53.298 34.0175 53.6249 33.4875 54.3178C26.018 64.5663 24.4672 70.1189 25.1209 74.2837C25.7736 78.4474 29.3238 82.6122 34.63 85.7561C39.9351 88.8175 43.1996 90.5735 46.7921 94.4918C47.2406 94.9404 47.7293 95.0631 47.8944 94.2062C49.7308 82.2028 59.7698 80.4467 72.8702 80.6932C91.317 80.9788 94.8693 87.0202 97.1532 86.0819C99.3578 85.0198 100.868 75.6716 101.276 69.0971C101.724 62.4019 102.134 57.0132 93.8887 57.6659C95.8478 61.6678 96.216 66.0779 92.6235 68.5671C88.9919 71.0985 86.379 69.8735 86.379 67.505C86.379 65.4231 86.0532 62.0761 83.4413 59.0136C82.1751 59.1765 81.1564 59.2992 79.8912 59.423C80.6655 63.0155 81.6049 69.6704 78.8704 72.3637C76.1358 75.058 68.3807 75.3035 60.3823 74.691C58.8727 74.5693 56.9951 73.9558 56.1784 72.0368C55.7711 71.1398 55.1576 68.8114 54.9947 58.6053C53.6068 58.4022 52.5055 58.2382 51.1187 57.9124C49.6895 67.7515 46.3838 71.3841 42.914 72.241C39.4453 73.0989 35.4868 72.2822 36.222 68.73C36.8737 65.3015 38.5885 61.4234 38.9153 54.6056C36.7922 53.8291 35.6921 53.3806 34.997 53.3393ZM91.1541 57.9939C89.5631 58.1568 88.0525 58.3609 86.5832 58.6053C88.2567 61.0151 89.1961 63.6682 89.2775 67.2194C89.7662 67.4235 92.0522 66.4852 92.5822 64.8519C93.0731 63.1784 92.9493 61.3007 91.1541 57.9939ZM42.0582 55.6253C41.5674 59.5045 40.7518 64.2817 39.8938 67.0977C38.9968 69.9148 41.4446 69.6704 42.5469 69.2208C44.0163 68.6083 46.7508 66.1181 48.18 57.2576C46.1383 56.7689 44.0977 56.2378 42.0582 55.6253ZM57.8921 59.0136C58.0963 62.0761 58.1375 66.6894 58.6273 69.1806C59.0759 71.3439 59.8936 71.4656 60.7081 71.5883C63.6881 72.0368 74.0952 72.4875 76.4204 70.1591C77.8495 68.6898 77.9733 63.5867 76.9525 59.6674C70.6678 60.0344 64.2181 59.8715 57.8921 59.0136ZM14.1415 43.5002C13.6115 43.5817 13.163 43.8673 12.6722 44.2756C10.9997 45.7862 9.24471 48.1548 8.95909 48.9302C8.59202 49.7056 8.79618 51.5843 8.06098 52.5628C7.40828 53.5022 5.69456 55.7882 5.69456 55.7882C4.22521 57.6257 4.9181 57.7495 6.51017 59.6674C7.93827 61.4636 11.2843 59.0951 15.1623 62.1576C17.1215 63.7084 19.4889 69.4662 21.2027 71.7512C22.5091 63.5455 27.6503 56.8905 29.1609 54.3591C31.6511 50.4408 29.4052 51.3802 22.1822 46.97C17.6938 44.2756 15.6521 43.1744 14.1415 43.5002ZM15.3252 48.6848C15.9377 48.6848 16.3873 48.7662 16.4688 48.9704C16.7544 49.7056 13.2857 53.992 11.4884 51.3802C10.1841 49.5004 13.4899 48.6446 15.3252 48.6848ZM105.684 74.7735C105.48 74.8137 105.317 74.9364 105.317 75.1808C104.867 81.0603 103.561 88.1225 104.011 90.4096C104.419 92.8585 105.806 98.738 106.092 101.31C106.336 103.31 107.235 102.535 107.357 101.554C107.887 97.5945 108.745 77.672 106.255 75.058C106.092 74.8549 105.847 74.7735 105.684 74.7735ZM25.5293 1.04126C34.9156 1.04126 42.4655 8.63346 42.4655 18.024C42.4655 27.3733 34.9156 35.0491 25.5293 35.0491C16.2244 35.0491 8.59202 27.4547 8.59202 18.024C8.59202 8.71703 16.143 1.04126 25.5293 1.04126ZM26.018 5.041C19.8148 5.041 14.7551 10.0224 14.7551 16.269C14.7551 22.4744 19.8148 27.496 26.018 27.496C32.2625 27.496 37.2429 22.4744 37.2429 16.269C37.2429 10.1039 32.2625 5.041 26.018 5.041Z" fill="#111111"/>
</svg>
